%
N1(DFS,P5000,1S1E)
N2 ( PART NAME=1S1E )
N3 ( MACHINE=L2503 LASER CAT )
N4 ( X SHEET WIDTH=110. )
N5 ( Y SHEET HEIGHT=60. )
N6 ( MATERIAL=Teksoft English Defaults )
N7 ( THICKNESS=.048 )
/N8Q20
N9G801[2122001]
/N10G60X0Y0 (ENTER ZERO OFFSET)
N11G24L12
N12G00X14.57873916015067Y1.444881886232898
N13Q23
N14X21.673227322696199Y1.44488188623289
N15Q23
N16X17.086613166556141Y1.44488188623289
N17Q23
N18X12.499999010413349Y1.444881886232898
N19Q23
N20X7.913384854270574Y1.444881886232898
N21Q23
N22X3.326770698130515Y1.444881886232898
N23Q23
N24X1.444881886232898Y0.0
N25Q23
N26X10.421259805559179Y17.555118519139771
N27Q23
N28X3.3267716430109311Y17.555118519139771
N29Q23
N30X7.9133857991537129Y17.555118519139771
N31Q23
N32X12.49999995529468Y17.555118519139771
N33Q23
N34X17.086614111439289Y17.555118519139771
N35Q23
N36X21.673228267579351Y17.555118519139771
N37Q23
